X: 41493
T: Tønder. . .The Eternal Friendship
R: reel
M: 4/4
K: Amajor
|:E>F|G2A3 E A<B|d2c4 ae|f2d<c d3A|c2B4 E>F|
G2A3 E A<B|c2A2 a3e|f2d<c B3A|1 B6:|2 A6||
|:ae|f2d<c B3F|E2d2 c2ae|f2d<c d3A|c2B4||
[1ae|f2d<c B3F|E2d2 c>B AG|F3E FG A<B|B6:|
[2 E>F|G2A3 E A<B|c2A2 a3e|f2d<c B3A|A6||

